images/snacks-icon.svg

<svg xmlns="http://www.w3.org/2000/svg" xmlns:xlink="http://www.w3.org/1999/xlink" width="87" zoomAndPan="magnify" viewBox="0 0 65.25 94.499998" height="126" preserveAspectRatio="xMidYMid meet" version="1.0"><defs><clipPath id="2dd823b218"><path d="M 0 82 L 64.507812 82 L 64.507812 91.492188 L 0 91.492188 Z M 0 82 " clip-rule="nonzero"/></clipPath><clipPath id="32a6b056e9"><path d="M 0 0.289062 L 64.507812 0.289062 L 64.507812 10 L 0 10 Z M 0 0.289062 " clip-rule="nonzero"/></clipPath><clipPath id="83045ea7cb"><path d="M 0 84 L 64.507812 84 L 64.507812 93.34375 L 0 93.34375 Z M 0 84 " clip-rule="nonzero"/></clipPath><clipPath id="bce5387f40"><path d="M 0 2.144531 L 64.507812 2.144531 L 64.507812 12 L 0 12 Z M 0 2.144531 " clip-rule="nonzero"/></clipPath></defs><g clip-path="url(#2dd823b218)"><path fill="#012430" d="M 0.0195312 90.972656 L 6.265625 88.132812 C 6.667969 87.949219 7.128906 87.949219 7.53125 88.132812 L 15.300781 91.664062 L 23.074219 88.132812 C 23.273438 88.042969 23.488281 87.996094 23.707031 87.996094 C 23.921875 87.996094 24.136719 88.042969 24.335938 88.132812 L 32.109375 91.664062 L 39.878906 88.132812 C 40.28125 87.949219 40.742188 87.949219 41.144531 88.132812 L 48.917969 91.664062 L 56.6875 88.132812 C 57.085938 87.949219 57.550781 87.949219 57.949219 88.132812 L 64.195312 90.972656 L 64.195312 82.648438 L 0.0195312 82.648438 Z M 0.0195312 90.972656 " fill-opacity="1" fill-rule="nonzero"/></g><g clip-path="url(#32a6b056e9)"><path fill="#012430" d="M 57.949219 3.820312 C 57.546875 4.003906 57.085938 4.003906 56.683594 3.820312 L 48.914062 0.289062 L 41.140625 3.820312 C 40.742188 4.003906 40.277344 4.003906 39.878906 3.820312 L 32.105469 0.289062 L 24.332031 3.820312 C 23.933594 4.003906 23.46875 4.003906 23.070312 3.820312 L 15.296875 0.289062 L 7.527344 3.820312 C 7.128906 4.003906 6.664062 4.003906 6.265625 3.820312 L 0.0195312 0.984375 L 0.0195312 9.304688 L 64.195312 9.304688 L 64.195312 0.984375 Z M 57.949219 3.820312 " fill-opacity="1" fill-rule="nonzero"/></g><path fill="#012430" d="M 43.695312 12.363281 L 0.320312 12.363281 C 2.085938 22.4375 3.058594 32.699219 3.222656 42.898438 C 3.273438 46.242188 3.242188 49.589844 3.117188 52.941406 Z M 43.695312 12.363281 " fill-opacity="1" fill-rule="nonzero"/><path fill="#012430" d="M 13.902344 79.59375 L 61.472656 32.019531 C 61.945312 25.433594 62.757812 18.859375 63.894531 12.363281 L 48.019531 12.363281 L 2.902344 57.480469 C 2.460938 64.890625 1.601562 72.28125 0.320312 79.59375 Z M 42.277344 24.367188 C 42.875 23.773438 43.84375 23.773438 44.441406 24.367188 L 47.351562 27.28125 L 46.183594 21.425781 C 46.015625 20.601562 46.554688 19.792969 47.382812 19.628906 C 48.207031 19.464844 49.015625 20 49.179688 20.828125 L 50.492188 27.394531 L 56.539062 28.257812 C 57.375 28.378906 57.957031 29.152344 57.835938 29.988281 C 57.726562 30.75 57.074219 31.300781 56.324219 31.300781 C 56.253906 31.300781 56.183594 31.292969 56.109375 31.285156 L 51.128906 30.570312 L 51.25 31.179688 L 53.082031 33.011719 C 53.679688 33.609375 53.679688 34.578125 53.082031 35.171875 C 52.785156 35.472656 52.394531 35.621094 52.003906 35.621094 C 51.613281 35.621094 51.21875 35.472656 50.921875 35.171875 L 42.277344 26.53125 C 41.683594 25.933594 41.683594 24.964844 42.277344 24.367188 Z M 36.875 29.773438 L 37.957031 28.691406 C 38.554688 28.09375 39.523438 28.09375 40.117188 28.691406 C 40.714844 29.285156 40.714844 30.253906 40.117188 30.851562 L 39.035156 31.933594 C 37.25 33.71875 37.25 36.625 39.035156 38.414062 C 39.902344 39.28125 41.054688 39.757812 42.277344 39.757812 C 43.503906 39.757812 44.652344 39.28125 45.519531 38.414062 L 46.601562 37.335938 C 47.199219 36.738281 48.164062 36.738281 48.761719 37.335938 C 49.359375 37.929688 49.359375 38.898438 48.761719 39.496094 L 47.679688 40.574219 C 46.238281 42.019531 44.320312 42.8125 42.277344 42.8125 C 40.238281 42.8125 38.320312 42.019531 36.875 40.574219 C 33.898438 37.597656 33.898438 32.75 36.875 29.773438 Z M 26.613281 40.035156 C 27.085938 39.5625 27.808594 39.453125 28.402344 39.761719 L 39.746094 45.703125 C 40.492188 46.097656 40.78125 47.019531 40.390625 47.765625 C 40 48.515625 39.074219 48.800781 38.328125 48.410156 L 31.316406 44.738281 L 34.988281 51.75 C 35.382812 52.496094 35.09375 53.421875 34.34375 53.8125 C 34.117188 53.933594 33.875 53.988281 33.636719 53.988281 C 33.085938 53.988281 32.554688 53.691406 32.28125 53.167969 L 26.339844 41.824219 C 26.03125 41.234375 26.140625 40.507812 26.613281 40.035156 Z M 13.933594 52.800781 C 14.261719 52.203125 14.949219 51.898438 15.609375 52.050781 L 24.464844 54.09375 L 19.589844 49.21875 C 18.992188 48.621094 18.992188 47.65625 19.589844 47.058594 C 20.183594 46.460938 21.152344 46.460938 21.75 47.058594 L 30.394531 55.699219 C 30.875 56.183594 30.980469 56.925781 30.648438 57.523438 C 30.320312 58.117188 29.632812 58.425781 28.96875 58.269531 L 20.113281 56.226562 L 24.992188 61.105469 C 25.589844 61.699219 25.589844 62.667969 24.992188 63.265625 C 24.691406 63.5625 24.304688 63.710938 23.910156 63.710938 C 23.519531 63.710938 23.128906 63.5625 22.832031 63.265625 L 14.1875 54.621094 C 13.707031 54.140625 13.601562 53.394531 13.933594 52.800781 Z M 7.707031 58.941406 L 9.867188 56.78125 C 10.460938 56.1875 11.429688 56.1875 12.027344 56.78125 C 12.625 57.378906 12.625 58.347656 12.027344 58.941406 L 9.867188 61.105469 C 9.269531 61.699219 9.269531 62.667969 9.867188 63.265625 C 10.15625 63.550781 10.539062 63.710938 10.945312 63.710938 C 11.355469 63.710938 11.738281 63.550781 12.027344 63.265625 C 13.8125 61.476562 16.722656 61.476562 18.507812 63.265625 C 19.375 64.128906 19.851562 65.28125 19.851562 66.503906 C 19.851562 67.730469 19.375 68.882812 18.507812 69.746094 L 16.347656 71.90625 C 16.050781 72.207031 15.660156 72.355469 15.265625 72.355469 C 14.878906 72.355469 14.484375 72.207031 14.1875 71.90625 C 13.589844 71.3125 13.589844 70.34375 14.1875 69.746094 L 16.347656 67.585938 C 16.636719 67.296875 16.796875 66.914062 16.796875 66.503906 C 16.796875 66.097656 16.636719 65.710938 16.347656 65.425781 C 15.753906 64.832031 14.785156 64.828125 14.1875 65.425781 C 13.320312 66.292969 12.171875 66.765625 10.945312 66.765625 C 9.722656 66.765625 8.570312 66.292969 7.707031 65.425781 C 6.839844 64.558594 6.363281 63.40625 6.363281 62.183594 C 6.363281 60.960938 6.839844 59.808594 7.707031 58.941406 Z M 7.707031 58.941406 " fill-opacity="1" fill-rule="nonzero"/><path fill="#012430" d="M 61.195312 36.621094 L 18.226562 79.59375 L 63.898438 79.59375 C 61.777344 67.484375 60.800781 55.148438 60.992188 42.898438 C 61.027344 40.808594 61.09375 38.714844 61.195312 36.621094 Z M 61.195312 36.621094 " fill-opacity="1" fill-rule="nonzero"/><g clip-path="url(#83045ea7cb)"><path fill="#012430" d="M 0.0195312 92.824219 L 6.265625 89.988281 C 6.667969 89.804688 7.128906 89.804688 7.53125 89.988281 L 15.300781 93.519531 L 23.074219 89.988281 C 23.273438 89.894531 23.488281 89.851562 23.707031 89.851562 C 23.921875 89.851562 24.136719 89.894531 24.335938 89.988281 L 32.109375 93.519531 L 39.878906 89.988281 C 40.28125 89.804688 40.742188 89.804688 41.144531 89.988281 L 48.917969 93.519531 L 56.6875 89.988281 C 57.085938 89.804688 57.550781 89.804688 57.949219 89.988281 L 64.195312 92.824219 L 64.195312 84.503906 L 0.0195312 84.503906 Z M 0.0195312 92.824219 " fill-opacity="1" fill-rule="nonzero"/></g><g clip-path="url(#bce5387f40)"><path fill="#012430" d="M 57.949219 5.675781 C 57.546875 5.859375 57.085938 5.859375 56.683594 5.675781 L 48.914062 2.144531 L 41.140625 5.675781 C 40.742188 5.859375 40.277344 5.859375 39.878906 5.675781 L 32.105469 2.144531 L 24.332031 5.675781 C 23.933594 5.859375 23.46875 5.859375 23.070312 5.675781 L 15.296875 2.144531 L 7.527344 5.675781 C 7.128906 5.859375 6.664062 5.859375 6.265625 5.675781 L 0.0195312 2.835938 L 0.0195312 11.160156 L 64.195312 11.160156 L 64.195312 2.835938 Z M 57.949219 5.675781 " fill-opacity="1" fill-rule="nonzero"/></g><path fill="#012430" d="M 43.695312 14.214844 L 0.320312 14.214844 C 2.085938 24.289062 3.058594 34.554688 3.222656 44.75 C 3.273438 48.09375 3.242188 51.445312 3.117188 54.796875 Z M 43.695312 14.214844 " fill-opacity="1" fill-rule="nonzero"/><path fill="#012430" d="M 13.902344 81.445312 L 61.472656 33.875 C 61.945312 27.289062 62.757812 20.710938 63.894531 14.214844 L 48.019531 14.214844 L 2.902344 59.335938 C 2.460938 66.742188 1.601562 74.136719 0.320312 81.445312 Z M 42.277344 26.222656 C 42.875 25.625 43.84375 25.625 44.441406 26.222656 L 47.351562 29.136719 L 46.183594 23.28125 C 46.015625 22.453125 46.554688 21.648438 47.382812 21.484375 C 48.207031 21.316406 49.015625 21.855469 49.179688 22.679688 L 50.492188 29.246094 L 56.539062 30.113281 C 57.375 30.230469 57.957031 31.003906 57.835938 31.839844 C 57.726562 32.601562 57.074219 33.152344 56.324219 33.152344 C 56.253906 33.152344 56.183594 33.148438 56.109375 33.136719 L 51.128906 32.425781 L 51.25 33.03125 L 53.082031 34.867188 C 53.679688 35.460938 53.679688 36.429688 53.082031 37.027344 C 52.785156 37.324219 52.394531 37.472656 52.003906 37.472656 C 51.613281 37.472656 51.21875 37.324219 50.921875 37.027344 L 42.277344 28.382812 C 41.683594 27.785156 41.683594 26.820312 42.277344 26.222656 Z M 36.875 31.625 L 37.957031 30.542969 C 38.554688 29.949219 39.523438 29.949219 40.117188 30.542969 C 40.714844 31.140625 40.714844 32.109375 40.117188 32.703125 L 39.035156 33.785156 C 37.25 35.574219 37.25 38.480469 39.035156 40.269531 C 39.902344 41.136719 41.054688 41.609375 42.277344 41.609375 C 43.503906 41.609375 44.652344 41.136719 45.519531 40.269531 L 46.601562 39.1875 C 47.199219 38.589844 48.164062 38.589844 48.761719 39.1875 C 49.359375 39.785156 49.359375 40.75 48.761719 41.347656 L 47.679688 42.429688 C 46.238281 43.871094 44.320312 44.667969 42.277344 44.667969 C 40.238281 44.667969 38.320312 43.871094 36.875 42.429688 C 33.898438 39.449219 33.898438 34.601562 36.875 31.625 Z M 26.613281 41.890625 C 27.085938 41.414062 27.808594 41.308594 28.402344 41.617188 L 39.746094 47.558594 C 40.492188 47.949219 40.78125 48.875 40.390625 49.621094 C 40 50.367188 39.074219 50.65625 38.328125 50.265625 L 31.316406 46.589844 L 34.988281 53.605469 C 35.382812 54.351562 35.09375 55.277344 34.34375 55.667969 C 34.117188 55.785156 33.875 55.839844 33.636719 55.839844 C 33.085938 55.839844 32.554688 55.542969 32.28125 55.023438 L 26.339844 43.679688 C 26.03125 43.085938 26.140625 42.359375 26.613281 41.890625 Z M 13.933594 54.652344 C 14.261719 54.058594 14.949219 53.753906 15.609375 53.90625 L 24.464844 55.949219 L 19.589844 51.074219 C 18.992188 50.476562 18.992188 49.507812 19.589844 48.914062 C 20.183594 48.316406 21.152344 48.316406 21.75 48.914062 L 30.394531 57.554688 C 30.875 58.039062 30.980469 58.78125 30.648438 59.375 C 30.320312 59.972656 29.632812 60.277344 28.96875 60.125 L 20.113281 58.082031 L 24.992188 62.957031 C 25.589844 63.554688 25.589844 64.519531 24.992188 65.117188 C 24.691406 65.417969 24.304688 65.566406 23.910156 65.566406 C 23.519531 65.566406 23.128906 65.417969 22.832031 65.117188 L 14.1875 56.472656 C 13.707031 55.992188 13.601562 55.25 13.933594 54.652344 Z M 7.707031 60.796875 L 9.867188 58.636719 C 10.460938 58.039062 11.429688 58.039062 12.027344 58.636719 C 12.625 59.230469 12.625 60.199219 12.027344 60.796875 L 9.867188 62.957031 C 9.269531 63.554688 9.269531 64.523438 9.867188 65.117188 C 10.15625 65.40625 10.539062 65.566406 10.945312 65.566406 C 11.355469 65.566406 11.738281 65.40625 12.027344 65.117188 C 13.8125 63.332031 16.722656 63.332031 18.507812 65.117188 C 19.375 65.984375 19.851562 67.136719 19.851562 68.359375 C 19.851562 69.582031 19.375 70.734375 18.507812 71.601562 L 16.347656 73.761719 C 16.050781 74.058594 15.660156 74.210938 15.265625 74.210938 C 14.878906 74.210938 14.484375 74.058594 14.1875 73.761719 C 13.589844 73.164062 13.589844 72.199219 14.1875 71.601562 L 16.347656 69.441406 C 16.636719 69.152344 16.796875 68.769531 16.796875 68.359375 C 16.796875 67.949219 16.636719 67.566406 16.347656 67.277344 C 15.753906 66.683594 14.785156 66.683594 14.1875 67.277344 C 13.320312 68.144531 12.171875 68.621094 10.945312 68.621094 C 9.722656 68.621094 8.570312 68.144531 7.707031 67.277344 C 6.839844 66.414062 6.363281 65.261719 6.363281 64.035156 C 6.363281 62.8125 6.839844 61.664062 7.707031 60.796875 Z M 7.707031 60.796875 " fill-opacity="1" fill-rule="nonzero"/><path fill="#012430" d="M 61.195312 38.476562 L 18.226562 81.445312 L 63.898438 81.445312 C 61.777344 69.339844 60.800781 57.003906 60.992188 44.75 C 61.027344 42.660156 61.09375 40.570312 61.195312 38.476562 Z M 61.195312 38.476562 " fill-opacity="1" fill-rule="nonzero"/></svg>

<svg xmlns="http://www.w3.org/2000/svg" width="87" height="126" viewBox="0 0 65.25 94.5"><defs><clipPath id="a"><path d="M0 82h64.508v9.492H0Zm0 0"/></clipPath><clipPath id="b"><path d="M0 .29h64.508V10H0Zm0 0"/></clipPath><clipPath id="c"><path d="M0 84h64.508v9.344H0Zm0 0"/></clipPath><clipPath id="d"><path d="M0 2.145h64.508V12H0Zm0 0"/></clipPath></defs><g clip-path="url(#a)"><path fill="#012430" d="m.02 90.973 6.246-2.84a1.52 1.52 0 0 1 1.265 0l7.77 3.531 7.773-3.531a1.54 1.54 0 0 1 1.262 0l7.773 3.531 7.77-3.531a1.52 1.52 0 0 1 1.266 0l7.773 3.531 7.77-3.531a1.51 1.51 0 0 1 1.261 0l6.246 2.84v-8.325H.02Zm0 0"/></g><g clip-path="url(#b)"><path fill="#012430" d="M57.95 3.82a1.52 1.52 0 0 1-1.266 0L48.914.29l-7.773 3.53a1.51 1.51 0 0 1-1.262 0L32.105.29l-7.773 3.53a1.51 1.51 0 0 1-1.262 0L15.297.29l-7.77 3.53a1.51 1.51 0 0 1-1.261 0L.02.984v8.32h64.175V.985Zm0 0"/></g><path fill="#012430" d="M43.695 12.363H.32a195.6 195.6 0 0 1 2.903 30.535c.05 3.344.02 6.692-.106 10.043ZM13.902 79.594l47.57-47.574a195 195 0 0 1 2.423-19.657H48.02L2.902 57.48c-.441 7.41-1.3 14.801-2.582 22.114Zm28.375-55.227a1.537 1.537 0 0 1 2.164 0l2.91 2.914-1.167-5.855a1.529 1.529 0 0 1 2.996-.598l1.312 6.567 6.047.863a1.529 1.529 0 0 1-.215 3.043c-.07 0-.14-.008-.215-.016l-4.98-.715.121.61 1.832 1.832a1.525 1.525 0 0 1 0 2.16c-.297.3-.687.45-1.078.45-.39 0-.785-.15-1.082-.45l-8.645-8.64a1.537 1.537 0 0 1 0-2.165m-5.402 5.406 1.082-1.082a1.525 1.525 0 0 1 2.16 0 1.525 1.525 0 0 1 0 2.16l-1.082 1.083a4.59 4.59 0 0 0 0 6.48 4.56 4.56 0 0 0 3.242 1.344 4.55 4.55 0 0 0 3.243-1.344l1.082-1.078a1.525 1.525 0 0 1 2.16 0 1.525 1.525 0 0 1 0 2.16l-1.082 1.078a7.58 7.58 0 0 1-5.403 2.239 7.59 7.59 0 0 1-5.402-2.239c-2.977-2.976-2.977-7.824 0-10.8M26.613 40.035a1.53 1.53 0 0 1 1.79-.273l11.343 5.941a1.527 1.527 0 1 1-1.418 2.707l-7.012-3.672 3.672 7.012a1.523 1.523 0 0 1-.644 2.063 1.525 1.525 0 0 1-2.062-.645L26.34 41.824a1.53 1.53 0 0 1 .273-1.789m-12.68 12.766a1.524 1.524 0 0 1 1.676-.75l8.856 2.043-4.875-4.875a1.525 1.525 0 0 1 0-2.16 1.525 1.525 0 0 1 2.16 0l8.645 8.64c.48.485.585 1.227.253 1.824a1.524 1.524 0 0 1-1.68.747l-8.855-2.043 4.88 4.878a1.525 1.525 0 0 1-1.083 2.606 1.52 1.52 0 0 1-1.078-.445l-8.644-8.645a1.526 1.526 0 0 1-.254-1.82m-6.226 6.14 2.16-2.16a1.53 1.53 0 0 1 2.16 0 1.525 1.525 0 0 1 0 2.16l-2.16 2.164a1.525 1.525 0 0 0 1.078 2.606c.41 0 .793-.16 1.082-.445a4.583 4.583 0 0 1 6.48 0 4.54 4.54 0 0 1 1.345 3.238 4.54 4.54 0 0 1-1.344 3.242l-2.16 2.16c-.297.301-.688.45-1.082.45-.387 0-.782-.149-1.078-.45a1.525 1.525 0 0 1 0-2.16l2.16-2.16c.289-.29.449-.672.449-1.082 0-.406-.16-.793-.45-1.078a1.53 1.53 0 0 0-2.16 0 4.55 4.55 0 0 1-3.242 1.34 4.54 4.54 0 0 1-3.238-1.34 4.56 4.56 0 0 1-1.344-3.242c0-1.223.477-2.375 1.344-3.243M61.195 36.621 18.227 79.594h45.671a195.4 195.4 0 0 1-2.906-36.696 199 199 0 0 1 .203-6.277m0 0"/><g clip-path="url(#c)"><path fill="#012430" d="m.02 92.824 6.246-2.836a1.52 1.52 0 0 1 1.265 0l7.77 3.532 7.773-3.532c.2-.093.414-.136.633-.136.215 0 .43.043.629.136l7.773 3.532 7.77-3.532a1.52 1.52 0 0 1 1.266 0l7.773 3.532 7.77-3.532a1.51 1.51 0 0 1 1.261 0l6.246 2.836v-8.32H.02Zm0 0"/></g><g clip-path="url(#d)"><path fill="#012430" d="M57.95 5.676a1.52 1.52 0 0 1-1.266 0l-7.77-3.531-7.773 3.53a1.51 1.51 0 0 1-1.262 0l-7.774-3.53-7.773 3.53a1.51 1.51 0 0 1-1.262 0l-7.773-3.53-7.77 3.53a1.51 1.51 0 0 1-1.261 0L.02 2.836v8.325h64.175V2.836Zm0 0"/></g><path fill="#012430" d="M43.695 14.215H.32A195.6 195.6 0 0 1 3.223 44.75c.05 3.344.02 6.695-.106 10.047ZM13.902 81.445l47.57-47.57a195 195 0 0 1 2.423-19.66H48.02L2.902 59.335c-.441 7.407-1.3 14.802-2.582 22.11Zm28.375-55.222a1.53 1.53 0 0 1 2.164 0l2.91 2.914-1.167-5.856a1.524 1.524 0 0 1 1.199-1.797 1.526 1.526 0 0 1 1.797 1.196l1.312 6.566 6.047.867c.836.117 1.418.89 1.297 1.727a1.53 1.53 0 0 1-1.727 1.297l-4.98-.711.121.605 1.832 1.836a1.525 1.525 0 0 1-1.078 2.606c-.39 0-.785-.149-1.082-.446l-8.645-8.644a1.53 1.53 0 0 1 0-2.16m-5.402 5.402 1.082-1.082a1.53 1.53 0 0 1 2.16 0 1.525 1.525 0 0 1 0 2.16l-1.082 1.082a4.595 4.595 0 0 0 0 6.485 4.55 4.55 0 0 0 3.242 1.34 4.55 4.55 0 0 0 3.243-1.34l1.082-1.083a1.525 1.525 0 0 1 2.16 0 1.525 1.525 0 0 1 0 2.16L47.68 42.43a7.6 7.6 0 0 1-5.403 2.238 7.6 7.6 0 0 1-5.402-2.238c-2.977-2.98-2.977-7.828 0-10.805M26.613 41.891a1.52 1.52 0 0 1 1.79-.274l11.343 5.942a1.53 1.53 0 0 1 .645 2.062 1.53 1.53 0 0 1-2.063.645l-7.012-3.676 3.672 7.015a1.523 1.523 0 0 1-1.351 2.235 1.53 1.53 0 0 1-1.356-.817L26.34 43.68c-.309-.594-.2-1.32.273-1.79m-12.68 12.761a1.53 1.53 0 0 1 1.676-.746l8.856 2.043-4.875-4.875a1.525 1.525 0 0 1 0-2.16 1.525 1.525 0 0 1 2.16 0l8.645 8.64c.48.485.585 1.227.253 1.821a1.53 1.53 0 0 1-1.68.75l-8.855-2.043 4.88 4.875a1.525 1.525 0 0 1 0 2.16c-.302.301-.688.45-1.083.45-.39 0-.781-.149-1.078-.45l-8.644-8.644a1.526 1.526 0 0 1-.254-1.82m-6.226 6.145 2.16-2.16a1.525 1.525 0 0 1 2.16 0 1.525 1.525 0 0 1 0 2.16l-2.16 2.16a1.525 1.525 0 0 0 0 2.16 1.519 1.519 0 0 0 2.16 0 4.59 4.59 0 0 1 6.48 0 4.56 4.56 0 0 1 1.345 3.242 4.56 4.56 0 0 1-1.344 3.243l-2.16 2.16a1.526 1.526 0 1 1-2.16-2.16l2.16-2.16c.289-.29.449-.672.449-1.083s-.16-.793-.45-1.082a1.53 1.53 0 0 0-2.16 0 4.55 4.55 0 0 1-3.242 1.344 4.54 4.54 0 0 1-3.238-1.344 4.54 4.54 0 0 1-1.344-3.242c0-1.222.477-2.37 1.344-3.238M61.195 38.477 18.227 81.445h45.671a195.4 195.4 0 0 1-2.906-36.695q.052-3.134.203-6.273m0 0"/></svg>
